Adwaita++-Dark/actions/22/kdenlive-add-text-clip.svg

<svg fill="none" height="22" viewBox="0 0 22 22" width="22" xmlns="http://www.w3.org/2000/svg">
  <g fill="#e6ddff">
    <path d="m10.4 14.6.8607.8607c.2384.2384.5495.3563.8606.3563h1.365v1.365c0 .3111.1179.6222.3563.8606l.8607.8607.8607-.8607c.2384-.2384.3563-.5495.3563-.8606v-1.365h1.365c.3111 0 .6222-.1179.8606-.3563l.8607-.8607-.8607-.8607c-.2384-.2384-.5495-.3563-.8606-.3563h-1.365v-1.365c0-.3111-.1179-.6222-.3563-.8606l-.8607-.8607-.8607.8607c-.2384.2384-.3563.5495-.3563.8606v1.365h-1.365c-.3111 0-.6222.1179-.8606.3563z"/>
    <path d="m14 3v2.49495h-4.00523v10.50505h-2.98954v-10.50505h-4.00523v-2.49495z"/>
  </g>
</svg>

<svg xmlns="http://www.w3.org/2000/svg" fill="none" width="22" height="22" viewBox="0 0 22 22">
 <path fill="#E6DDFF" d="M10.4 14.6L11.2607 15.4607C11.4991 15.6991 11.8102 15.817 12.1213 15.817L13.4863 15.817L13.4863 17.182C13.4863 17.4931 13.6042 17.8042 13.8426 18.0426L14.7033 18.9033L15.564 18.0426C15.8024 17.8042 15.9203 17.4931 15.9203 17.182L15.9203 15.817L17.2853 15.817C17.5964 15.817 17.9075 15.6991 18.1459 15.4607L19.0066 14.6L18.1459 13.7393C17.9075 13.5009 17.5964 13.383 17.2853 13.383L15.9203 13.383L15.9203 12.018C15.9203 11.7069 15.8024 11.3958 15.564 11.1574L14.7033 10.2967L13.8426 11.1574C13.6042 11.3958 13.4863 11.7069 13.4863 12.018L13.4863 13.383L12.1213 13.383C11.8102 13.383 11.4991 13.5009 11.2607 13.7393L10.4 14.6Z"/>
 <path fill="#E6DDFF" d="M14 3V5.49495H9.99477V16H7.00523V5.49495H3V3H14Z"/>
</svg>
